X:1
T: Teton Waltz
C:
N:Joseph Fairfield (1935-2007), old time musician from Fairfield Nebraska,
N:learned this from a Colorado fiddler, who learned it from an old fiddler in Montana.
M:3/4
K:C
E ^D=D|"C"C2[CE]3[EG]|[cE]2[eG]2B2|"F"[dF]2[cF]3F|"Dm"[FA]4_B2|"G7"[GB]3c BA|
G3A FG|"C"[CE]6-|[CE]3E ^D=D|C2[CE]3[EG]|[cE]2[eG]2B2|"F"[dF]2[cF]3F|
"D7"[A^F]4_B2|"G7"[=BG]3A GB|[eG]3G Bd|"C"[cE]3B cd|[cE]3c B_B||
"F"[AF]2F3A|[cA]2B3A|"C"[GE]2C3D|[CE]4F2|"D7"[D^F]2A3B|
[cA]2[ce]3[c_e]|"G7"[dF]6-|[dF]3E ^D=D|"C"C2[CE]3[EG]|[cE]2[eG]2B2|
"F"[dF]2[cF]3F|"D7"[A^F]4_B2|"G7"[=BG]3A GB|[eG]3G Bd|"C"[cE]3B cd|[cE]3|]

